icons/cursor-line.svg

<svg width="24" height="24" fill="none" xmlns="http://www.w3.org/2000/svg"><g clip-path="url(#a)"><path d="m15.388 13.498 2.552 7.014-4.698 1.71-2.553-7.014-3.899 2.445 1.62-16.02 11.537 11.232-4.558.633h-.001Zm-.011 5.818-2.715-7.46 2.96-.41-5.64-5.49-.79 7.83 2.53-1.587 2.715 7.46.94-.343Z" /></g><defs><clipPath id="a"><path fill="#fff" d="M0 0h24v24H0z"/></clipPath></defs></svg>

<svg xmlns="http://www.w3.org/2000/svg" width="24" height="24" fill="none"><g clip-path="url(#a)"><g><path fill="#121212" d="M15.388 13.498L17.94 20.512L13.242 22.222L10.689 15.208L6.79 17.653L8.41 1.633L19.947 12.865L15.389 13.498H15.388ZM15.377 19.316L12.662 11.856L15.622 11.446L9.982 5.956L9.192 13.786L11.722 12.199L14.437 19.659L15.377 19.316Z"/></g></g><defs><clipPath id="a"><rect width="24" height="24" fill="white"/></clipPath></defs></svg>
